SF_Symbols/person.badge.minus.svg

<?xml version="1.0" encoding="UTF-8"?>
<svg xmlns="http://www.w3.org/2000/svg" xmlns:xlink="http://www.w3.org/1999/xlink" width="24" height="24" viewBox="0 0 24 24" version="1.1">
<g id="surface1">
<path style=" stroke:none;fill-rule:nonzero;fill:rgb(100%,100%,100%);fill-opacity:1;" d="M 12.230469 19.636719 L 21.207031 19.636719 C 22.910156 19.636719 23.761719 19.078125 23.761719 17.96875 C 23.761719 17.289062 23.550781 16.5625 23.136719 15.792969 C 22.726562 15.019531 22.125 14.296875 21.332031 13.613281 C 20.546875 12.925781 19.59375 12.367188 18.46875 11.9375 C 17.34375 11.507812 16.078125 11.292969 14.667969 11.292969 C 13.722656 11.292969 12.839844 11.394531 12.019531 11.605469 C 11.207031 11.804688 10.46875 12.082031 9.800781 12.4375 C 10.015625 12.609375 10.222656 12.796875 10.417969 13 C 10.617188 13.195312 10.804688 13.40625 10.980469 13.636719 C 11.484375 13.398438 12.046875 13.210938 12.667969 13.074219 C 13.285156 12.933594 13.953125 12.863281 14.667969 12.863281 C 15.859375 12.863281 16.917969 13.039062 17.832031 13.386719 C 18.757812 13.726562 19.535156 14.15625 20.167969 14.675781 C 20.796875 15.199219 21.273438 15.738281 21.59375 16.300781 C 21.921875 16.859375 22.082031 17.347656 22.082031 17.769531 C 22.082031 17.882812 22.050781 17.957031 21.988281 18 C 21.933594 18.042969 21.839844 18.0625 21.707031 18.0625 L 12.488281 18.0625 C 12.484375 18.332031 12.457031 18.601562 12.417969 18.863281 C 12.375 19.128906 12.3125 19.386719 12.230469 19.636719 Z M 14.667969 10 C 15.492188 10 16.246094 9.777344 16.925781 9.332031 C 17.609375 8.890625 18.148438 8.296875 18.550781 7.5625 C 18.960938 6.820312 19.167969 6 19.167969 5.105469 C 19.167969 4.214844 18.964844 3.414062 18.5625 2.699219 C 18.160156 1.976562 17.617188 1.402344 16.9375 0.980469 C 16.257812 0.554688 15.5 0.34375 14.667969 0.34375 C 13.847656 0.34375 13.09375 0.558594 12.40625 0.988281 C 11.726562 1.421875 11.179688 1.996094 10.769531 2.71875 C 10.367188 3.441406 10.167969 4.242188 10.167969 5.125 C 10.171875 6.015625 10.378906 6.828125 10.78125 7.574219 C 11.191406 8.308594 11.734375 8.898438 12.417969 9.34375 C 13.097656 9.78125 13.847656 10 14.667969 10 Z M 14.667969 8.425781 C 14.160156 8.425781 13.691406 8.28125 13.261719 7.988281 C 12.835938 7.691406 12.492188 7.292969 12.230469 6.792969 C 11.972656 6.292969 11.84375 5.734375 11.84375 5.125 C 11.84375 4.519531 11.972656 3.980469 12.230469 3.5 C 12.484375 3.015625 12.828125 2.628906 13.25 2.34375 C 13.679688 2.058594 14.152344 1.917969 14.667969 1.917969 C 15.1875 1.917969 15.660156 2.054688 16.082031 2.332031 C 16.515625 2.609375 16.855469 2.992188 17.105469 3.480469 C 17.359375 3.957031 17.488281 4.5 17.488281 5.105469 C 17.488281 5.714844 17.359375 6.273438 17.105469 6.78125 C 16.847656 7.28125 16.503906 7.679688 16.074219 7.980469 C 15.648438 8.277344 15.179688 8.425781 14.667969 8.425781 Z M 5.78125 23.105469 C 6.496094 23.105469 7.171875 22.964844 7.8125 22.6875 C 8.453125 22.410156 9.015625 22.027344 9.5 21.542969 C 9.992188 21.054688 10.378906 20.492188 10.65625 19.855469 C 10.933594 19.214844 11.074219 18.535156 11.074219 17.8125 C 11.074219 17.082031 10.933594 16.398438 10.65625 15.761719 C 10.386719 15.121094 10.007812 14.558594 9.519531 14.074219 C 9.035156 13.585938 8.472656 13.207031 7.832031 12.9375 C 7.195312 12.660156 6.511719 12.519531 5.78125 12.519531 C 5.058594 12.519531 4.378906 12.660156 3.738281 12.9375 C 3.101562 13.207031 2.539062 13.589844 2.050781 14.082031 C 1.566406 14.570312 1.183594 15.132812 0.90625 15.769531 C 0.628906 16.402344 0.488281 17.082031 0.488281 17.8125 C 0.488281 18.542969 0.628906 19.226562 0.90625 19.863281 C 1.183594 20.503906 1.566406 21.066406 2.050781 21.550781 C 2.539062 22.039062 3.101562 22.417969 3.738281 22.6875 C 4.378906 22.964844 5.058594 23.105469 5.78125 23.105469 Z M 3.09375 18.449219 C 2.921875 18.449219 2.769531 18.382812 2.644531 18.25 C 2.519531 18.125 2.457031 17.980469 2.457031 17.8125 C 2.457031 17.644531 2.519531 17.496094 2.644531 17.363281 C 2.769531 17.238281 2.921875 17.175781 3.09375 17.175781 L 8.449219 17.175781 C 8.621094 17.175781 8.769531 17.238281 8.894531 17.363281 C 9.027344 17.496094 9.09375 17.644531 9.09375 17.8125 C 9.09375 17.980469 9.027344 18.125 8.894531 18.25 C 8.769531 18.382812 8.621094 18.449219 8.449219 18.449219 Z M 3.09375 18.449219 "/>
</g>
</svg>

<svg xmlns="http://www.w3.org/2000/svg" width="24" height="24"><path style="stroke:none;fill-rule:nonzero;fill:#fff;fill-opacity:1" d="M12.23 19.637h8.977c1.703 0 2.555-.559 2.555-1.668 0-.68-.211-1.407-.625-2.176-.41-.773-1.012-1.496-1.805-2.18-.785-.687-1.738-1.246-2.863-1.675-1.125-.43-2.39-.645-3.801-.645-.945 0-1.828.102-2.648.312-.77.184-1.516.461-2.22.832.216.172.423.36.618.563.2.195.387.406.562.637a8.004 8.004 0 0 1 1.688-.563 9.06 9.06 0 0 1 2-.21c1.191 0 2.25.175 3.164.523.926.34 1.703.77 2.336 1.289.629.523 1.105 1.062 1.426 1.625.328.558.488 1.047.488 1.469 0 .113-.031.187-.094.23-.054.043-.148.063-.281.063h-9.219a5.312 5.312 0 0 1-.258 1.574ZM14.668 10c.824 0 1.578-.223 2.258-.668a4.81 4.81 0 0 0 1.625-1.77 5.001 5.001 0 0 0 .617-2.457c0-.89-.203-1.69-.605-2.406A4.637 4.637 0 0 0 16.938.98a4.198 4.198 0 0 0-2.27-.636c-.82 0-1.574.215-2.262.644a4.893 4.893 0 0 0-1.636 1.73c-.403.723-.602 1.524-.602 2.407.004.89.21 1.703.613 2.45.41.734.953 1.323 1.637 1.769.68.437 1.43.656 2.25.656Zm0-1.574c-.508 0-.977-.145-1.406-.438a3.273 3.273 0 0 1-1.032-1.195 3.584 3.584 0 0 1-.386-1.668c0-.605.129-1.145.386-1.625.239-.465.59-.863 1.02-1.156a2.51 2.51 0 0 1 1.418-.426c.52 0 .992.137 1.414.414.434.277.773.66 1.023 1.148.254.477.383 1.02.383 1.625 0 .61-.129 1.168-.383 1.676-.257.5-.601.899-1.03 1.2-.41.292-.903.449-1.407.445Zm-8.887 14.68c.715 0 1.39-.141 2.032-.419A5.4 5.4 0 0 0 9.5 21.544a5.39 5.39 0 0 0 1.156-1.688c.278-.64.418-1.32.418-2.043 0-.73-.14-1.414-.418-2.05a5.207 5.207 0 0 0-1.136-1.688 5.227 5.227 0 0 0-1.688-1.136 5.136 5.136 0 0 0-2.05-.418c-.723 0-1.403.14-2.044.418a5.25 5.25 0 0 0-1.687 1.144A5.514 5.514 0 0 0 .906 15.77a5.034 5.034 0 0 0-.418 2.043c0 .73.14 1.414.418 2.05.278.64.66 1.203 1.145 1.688a5.27 5.27 0 0 0 1.687 1.137c.64.277 1.32.417 2.043.417Zm-2.687-4.657a.595.595 0 0 1-.45-.199.6.6 0 0 1-.187-.438.637.637 0 0 1 .637-.636h5.355c.172 0 .32.062.446.187.132.133.199.282.199.45a.584.584 0 0 1-.2.437.587.587 0 0 1-.445.2Zm0 0"/></svg>
